X: 13
T: If We Hadn't Any Women In The World
R: barndance
M: 4/4
L: 1/8
K: Gmaj
|:B>c|d>ed>B G>AB>G|E2 _E2 D2 G>A|B>d^c>d e>dB>G|A2 AB A2 B>c |
d>ed>B G>AB>G|E2 _E2 D2 G>A|B>dd>B A>GB>A|G2 GF G2:||
|:(3Bcd|e2 e>f g2 g>f|e>dd>B d2 (3Bcd|e>dB>d g>ed>B|A2 AB A2 B>c|
d>ed>B G>AB>G|E2 _E2 D2 G>A|B>dd>B A>GB>A|G2 GF G2:||


Tune 1376	Setting 14738

